icons/Pencil.svg

<svg width="24" height="24" viewBox="0 0 24 24" fill="none" xmlns="http://www.w3.org/2000/svg">
<path fill-rule="evenodd" clip-rule="evenodd" d="M14.5607,6.5l1.4696,1.46967l1.4697,1.46967l1.0555,-1.05545c0.4881,-0.48816 0.4881,-1.27961 0,-1.76777l-1.1716,-1.17157c-0.4882,-0.48816 -1.2796,-0.48816 -1.7678,0zM14.4393,8.5l-0.9393,-0.93934l-7.93934,7.93934l0.93934,0.9393zM8.5,18.4393l7.9393,-7.9393l-0.9393,-0.93934l-7.93934,7.93934zM5.96967,18.0303l-1.21967,-1.2196v2.4393h2.43934zM12.9685,5.97082l0.0012,-0.00115l0.0011,-0.00114l1.5847,-1.58464c1.0739,-1.07395 2.8151,-1.07394 3.889,0l1.1716,1.17157c1.074,1.07394 1.074,2.81514 0,3.88909l-1.5858,1.58575l-8.99997,9l-0.5,0.5c-0.14065,0.1407 -0.33142,0.2197 -0.53033,0.2197h-4c-0.41421,0 -0.75,-0.3358 -0.75,-0.75v-4c0,-0.1989 0.07902,-0.3897 0.21967,-0.5303l0.49876,-0.4988l0.00124,-0.0012l0.00124,-0.0013z" fill="#002B51"/>
</svg>

<svg width="24" height="24" viewBox="0 0 24 24" fill="none" xmlns="http://www.w3.org/2000/svg">
<path fill-rule="evenodd" clip-rule="evenodd" d="M15.6161 5.44455C16.1043 4.95639 16.8957 4.95639 17.3839 5.44455L18.5555 6.61612C19.0436 7.10428 19.0436 7.89573 18.5555 8.38389L17.5 9.43934L16.0303 7.96967L14.5607 6.5L15.6161 5.44455ZM14.4393 8.5L13.5 7.56066L5.56066 15.5L6.5 16.4393L14.4393 8.5ZM7.56066 17.5L15.5 9.56066L16.4393 10.5L8.5 18.4393L7.56066 17.5ZM5.96967 18.0303L4.75 16.8107V19.25H7.18934L5.96967 18.0303ZM12.9685 5.97082L12.9697 5.96967L12.9708 5.96853L14.5555 4.38389C15.6294 3.30994 17.3706 3.30995 18.4445 4.38389L19.6161 5.55546C20.6901 6.6294 20.6901 8.3706 19.6161 9.44455L18.0303 11.0303L9.03033 20.0303L8.53033 20.5303C8.38968 20.671 8.19891 20.75 8 20.75H4C3.58579 20.75 3.25 20.4142 3.25 20V16C3.25 15.8011 3.32902 15.6103 3.46967 15.4697L3.96843 14.9709L3.96967 14.9697L3.97091 14.9684L12.9685 5.97082Z" fill="#002B51"/>
</svg>
